X: 203	% 56
T: When You And I Were Young Maggie
S: Viola Ruth "Pioneer Western Folk Tunes" 1948 p.20 #3
R: two-step, march
Z: 2019 John Chambers <jc:trillian.mit.edu>
M: 4/4
L: 1/8
K: G
V: 1 name="56"
"^Two Step Swing"d2 |\
d2 ([BG][AF]) [G2B,2] ([AF][GB,]) | [G3B,3] "_gliss"([EC] [G3E3]) [EC] |\
D2 [G2B,2] [B2G2] [d2F2] | [A6F6] [d2F2] |\
[d2F2] ([BG][AF]) [G2B,2] (AG) | [G3B,3] "_gliss"([EC] [G3E3]) [EC] |\
[D2B,2] [GB,][BG] [d2B2] ([AF][BG]) | [G4-B,4-] [G3B,3] ||
|: [GB,] |\
[e2G2] (M[eG]M[eG]) [c2E2] (M[eG]M[eG]) | [d3B3] [BG] [d3B3] [BG] |\
[A2F2] [d2F2] (d^cfe) | [d6F6] [d2F2] |\
[d2F2] (BA) [G2B,2] (AG) | [G3B,3] [EC] [G3E3] [EC] |\
[D2B,2]([GB,][BG]) [d2B2] ([AF][BG]) | [G4-B,4-] [G3B,3] :|
